packages/kaspersky-hexa-ui-icons/src/iconsSVGs/32/Phone.svg

<svg width="32" height="32" viewBox="0 0 32 32" fill="none" xmlns="http://www.w3.org/2000/svg">
<path fill-rule="evenodd" clip-rule="evenodd" d="M4 4.99961C4.00012 4.6934 4.13786 4.41937 4.35474 4.23601C4.41893 4.18172 4.49014 4.13531 4.56692 4.09839C4.69796 4.03533 4.84485 4 5 4H9.77924C10.6401 4 11.4044 4.55086 11.6766 5.36754L13.2402 10.0582C13.4932 10.8172 13.2695 11.654 12.6715 12.1855L9.14561 15.3196C11.0409 18.4606 13.6943 21.0907 16.854 22.9581L19.084 19.6171C19.5791 18.8754 20.5054 18.5511 21.355 18.822L26.1953 20.3651C26.9645 20.6103 27.5109 21.2941 27.5804 22.0985L27.9951 26.8998C27.9974 26.9223 27.9988 26.945 27.9996 26.9679C28.0035 27.0873 27.9861 27.2029 27.9507 27.3109C27.816 27.7237 27.4214 28.0142 26.9679 27.9995C26.96 27.9993 26.9522 27.9989 26.9444 27.9985C14.5291 27.4032 4.59794 17.4726 4.00163 5.05765C4.00055 5.03857 4 5.01896 4 4.99961ZM25.9028 25.9172L25.5878 22.2706L20.7475 20.7275L18.6292 23.901C20.8712 24.9637 23.3212 25.6613 25.9028 25.9172ZM8.16726 13.5134C7.0526 11.2048 6.3265 8.67223 6.07337 6H9.77924L11.3428 10.6907L8.16726 13.5134Z" fill="black"/>
</svg>

<svg xmlns="http://www.w3.org/2000/svg" width="32" height="32" fill="none" viewBox="0 0 32 32"><path fill="#000" fill-rule="evenodd" d="M4 4.9996a.998.998 0 0 1 .3547-.7636A.996.996 0 0 1 5 4h4.7792a2 2 0 0 1 1.8974 1.3675l1.5636 4.6907a2 2 0 0 1-.5687 2.1273l-3.5259 3.1341a22.21 22.21 0 0 0 7.7084 7.6385l2.23-3.341a2 2 0 0 1 2.271-.7951l4.8403 1.5431a2 2 0 0 1 1.3851 1.7334l.4147 4.8013q.0034.0338.0045.0681a1 1 0 0 1-.0489.343c-.1347.4128-.5293.7033-.9828.6886q-.0118-.0004-.0235-.001C14.5291 27.4032 4.5979 17.4726 4.0016 5.0577A1 1 0 0 1 4 4.9996m21.9028 20.9176-.315-3.6466-4.8403-1.5431-2.1183 3.1735c2.242 1.0627 4.692 1.7603 7.2736 2.0162M8.1673 13.5134C7.0526 11.2048 6.3265 8.6722 6.0733 6h3.706l1.5635 4.6907z"/></svg>
